X:1
T:Wilbertine's Floffer March
T:Chorus Warmups
T:Alysia Lambert Arranged by Charlie Graham 
T:Arranged for Piano
C:Charlie Graham
%%score { 1 | 2 }
L:1/8
M:4/4
K:Db
V:1 treble nm="Piano" snm="Pno."
V:2 treble 
V:1
"^Scales" D2 E2 F2 G2 | A2 B2 c2 d2 | c2 B2 A2 G2 | F2 E2 D4 | D2 F2 A2 F2 | D4 z4 | B,2 C2 D2 E2 | %7
 F2 G2 A2 B2 | A2 G2 F2 E2 | D2 C2 B,4 | B,2 D2 F2 D2 | B,4 z4 |"^Chords" D2 F2 A2 F2 | D4 z4 | %14
 B,2 D2 F2 D2 | B,4 z4 | C2 A,2 C2 E2 | G2 E2 C4 | D2 F2 A2 d2 | A2 F2 D4 | z8 | %21
"^\"May the Thirds Be With You\"" D2 F2 E2 G2 | F2 A2 G2 B2 | A2 c2 B2 d2 | c2 e2 d4 | %25
 d2 B2 c2 A2 | B2 G2 A2 F2 | G2 E2 F2 D2 | (E2 C2 D4) | z8 | %30
[M:6/8]"^\"Compound Sequence Etude\"" D3 E F2 | E3 F G2 | F3 G A2 | G3 A B2 | A3 B c2 | B3 c d2 | %36
 c3 d e2 | d3 z2 z | d3 c B2 | c3 B A2 | B3 A G2 | A3 G F2 | G3 F E2 | F3 E D2 | E3 D C2 | %45
 D3 z2 z |[M:3/4][Q:1/4=144]"^Allegro""^\"Interval Etude\"" D2 D2 E2 | EE D2 D2 | E2 E2 D2 | %49
 D2 F2 FF | D2 D2 F2- | F2 D2 D2 | G2 GG D2 | D2 G2- G2 | D2 D2 A2 | AA D2 D2 | A2- A2 D2 | %57
 D2 B2 BB | D2 D2 B2- | B2 D2 D2 | c2 cc D2 | D2 c c3 | D2 D2 d2 | dd D4 | d2- d2 D2 | D2 D2 DD | %66
 D6 | z6 |[M:4/4][Q:1/4=114]"^Moderato""^\"'Add A Second' Etude\"" z8 | z8 | .D2 DE .D2 DE | %71
 FE .D2 DEFG | FE .D2 DEFG | AGFE .D2 DE | FGAB AGFE | .D2 DE FGAB | cBAG FE .D2 | DEFG ABcd | %78
 cBAG FE .D2 | .d2 dc .d2 dc | Bc .d2 dcBA | Bc .d2 dcBA | GABc .d2 dc | BAGF GABc | .d2 dc BAGF | %85
 EFGA Bc .d2 | dcBA GFED | EFGA Bc .d2 |] %88
V:2
 z8 | z8 | z8 | z8 | z8 | z4 [B,DF]4 | z8 | z8 | z8 | z8 | z8 | z4 [DFA]4 | z8 | z8 | z8 | z8 | %16
 z8 | z8 | z8 | z8 | z8 |[K:bass] D,2 F,2 E,2 G,2 | F,2 A,2 G,2 B,2 | A,2 C2 B,2 D2 | C2 E2 D4 | %25
 D2 B,2 C2 A,2 | B,2 G,2 A,2 F,2 | G,2 E,2 F,2 D,2 | (E,2 C,2 D,4) | z8 |[M:6/8] D,3 E, F,2 | %31
 E,3 F, G,2 | F,3 G, A,2 | G,3 A, B,2 | A,3 B, C2 | B,3 C D2 | C3 D E2 | D3 z z2 | D3 C B,2 | %39
 C3 B, A,2 | B,3 A, G,2 | A,3 G, F,2 | G,3 F, E,2 | F,3 E, D,2 | E,3 D, C,2 | D,3 z2 z | %46
[M:3/4] D,2 D,2 E,2 | E,E, D,2 D,2 | E,2 E,2 D,2 | D,2 F,2 F,F, | D,2 D,2 F,2- | F,2 D,2 D,2 | %52
 G,2 G,G, D,2 | D,2 G,2- G,2 | D,2 D,2 A,2 | A,A, D,2 D,2 | A,2- A,2 D,2 | D,2 B,2 B,B, | %58
 D,2 D,2 B,2- | B,2 D,2 D,2 | C2 CC D,2 | D,2 C C3 | D,2 D,2 D2 | DD D,4 | D2- D2 D,2 | %65
 D,2 D,2 D,D, | D,6 | z6 |[M:4/4] .D,,2 .D,,2 .D,,2 .D,,2 | .D,,2 .D,,2 .D,,2 .D,,2 | %70
 .D,,2 .D,,2 .D,,2 .D,,2 | .D,,2 .D,,2 .D,,2 .D,,2 | .D,,2 .D,,2 .D,,2 .D,,2 | %73
 .D,,2 .D,,2 .D,,2 .D,,2 | .D,,2 .D,,2 .D,,2 .D,,2 | .D,,2 .D,,2 .D,,2 .D,,2 | %76
 .D,,2 .D,,2 .D,,2 .D,,2 | .D,,2 .D,,2 .D,,2 .D,,2 | .D,,2 .D,,2 .D,,2 .D,,2 | %79
 .D,,2 .D,,2 .D,,2 .D,,2 | .D,,2 .D,,2 .D,,2 .D,,2 | .D,,2 .D,,2 .D,,2 .D,,2 | %82
 .D,,2 .D,,2 .D,,2 .D,,2 | .D,,2 .D,,2 .D,,2 .D,,2 | .D,,2 .D,,2 .D,,2 .D,,2 | %85
 .D,,2 .D,,2 .D,,2 .D,,2 | .D,,2 .D,,2 .D,,2 .D,,2 | .D,,2 .D,,2 .D,,2 .D,,2 |] %88

